X: 12618
T: Farewell To Whisky
R: polka
M: 2/4
K: Gmajor
|:EG G/B/A/G/|BE EG/E/|DG B/A/G/A/|d2 Bd|
e/f/g/e/ dB|c/B/A/G/ AB|DG B/A/G/A/|BG G2:|
|:dB/d/ gf/g/|e/f/g/e/ dB|dB/d/ gf/g/|ef g2|
e/f/g/e/ dB|c/B/A/G/ AB|DG B/A/G/A/|BG G2:|

